X:38
T: Tongnian ge
N: C1536
O: China,Fujian, Ninghua
S: II, 608]
R: Xiaodiao. Nann qing]
M: 2/4
L: 1/16
K: C
A2A2A2E2 | A2A2e4 |
cAcdAAA2 | G2A2E2z2 |
A2A2A2E2 | A2A2e4 |
A2A2c2A2 | c2A2c4 |
cAcdAAA2 | G2A2E2z2

@@@ Tune index: 6593
